gama.ui.shared/icons_svg/light/layer/layers.menu.svg

<svg height="25" viewBox="-583.382 -4009.529 25 25" width="25" xmlns="http://www.w3.org/2000/svg"><g fill="none"><path d="m-579.04244-4009.0294h16.32c2.12078 0 3.84 1.7194 3.84 3.84v16.32c0 2.1208-1.71922 3.84-3.84 3.84h-16.32c-2.12076 0-3.84-1.7192-3.84-3.84v-16.32c0-2.1206 1.71924-3.84 3.84-3.84z" fill="#fff"/><path d="m-579.04244-4009.0294h16.32c2.12078 0 3.84 1.7194 3.84 3.84v16.32c0 2.1208-1.71922 3.84-3.84 3.84h-16.32c-2.12076 0-3.84-1.7192-3.84-3.84v-16.32c0-2.1206 1.71924-3.84 3.84-3.84z" stroke="#000" stroke-linecap="round" stroke-linejoin="round" stroke-width=".25"/><path d="m-570.88244-3995.8814 6.74114-3.548-6.74114-3.5479-6.74111 3.5479zm-7.78626-3.9019 7.59997-4c.11663-.0614.25597-.0614.37259 0l7.59994 4c.28494.1499.28494.5579 0 .7079l-7.59994 4c-.11662.0614-.25596.0614-.37259 0l-7.59997-4c-.2849-.15-.2849-.558 0-.7079zm7.78626 6.3019 7.41364-3.902c.1955-.1028.4374-.0276.5403.1677.10286.1957.0278.4374-.1677.5403l-7.59994 3.9999c-.11662.0615-.25596.0615-.37259 0l-7.59997-3.9999c-.1955-.1029-.27054-.3446-.16765-.5403.10289-.1953.34475-.2705.54025-.1677zm0 2.3999 7.41364-3.9019c.1955-.1029.4374-.0276.5403.1677.10286.1957.0278.4374-.1677.5403l-7.59994 3.9999c-.11662.0615-.25596.0615-.37259 0l-7.59997-3.9999c-.1955-.1029-.27054-.3446-.16765-.5403.10289-.1953.34475-.2706.54025-.1677z" fill="#66727e"/></g></svg>

<?xml version="1.0" encoding="UTF-8" standalone="no"?>
<!DOCTYPE svg PUBLIC "-//W3C//DTD SVG 1.1//EN" "http://www.w3.org/Graphics/SVG/1.1/DTD/svg11.dtd">
<svg xmlns:dc="http://purl.org/dc/elements/1.1/" xmlns:xl="http://www.w3.org/1999/xlink" version="1.1" xmlns="http://www.w3.org/2000/svg" viewBox="-583.38244 -4009.5294 25 25" width="25" height="25">
  <defs/>
  <g id="SOURCES" stroke-dasharray="none" stroke="none" stroke-opacity="1" fill="none" fill-opacity="1">
    <title>SOURCES</title>
    <g id="SOURCES_Calque_2">
      <title>Calque 2</title>
      <g id="Group_9960">
        <g id="Graphic_8747">
          <path d="M -579.04244 -4009.0294 L -562.72244 -4009.0294 C -560.60166 -4009.0294 -558.88244 -4007.31 -558.88244 -4005.1894 L -558.88244 -3988.8694 C -558.88244 -3986.7486 -560.60166 -3985.0294 -562.72244 -3985.0294 L -579.04244 -3985.0294 C -581.1632 -3985.0294 -582.88244 -3986.7486 -582.88244 -3988.8694 L -582.88244 -4005.1894 C -582.88244 -4007.31 -581.1632 -4009.0294 -579.04244 -4009.0294 Z" fill="white"/>
          <path d="M -579.04244 -4009.0294 L -562.72244 -4009.0294 C -560.60166 -4009.0294 -558.88244 -4007.31 -558.88244 -4005.1894 L -558.88244 -3988.8694 C -558.88244 -3986.7486 -560.60166 -3985.0294 -562.72244 -3985.0294 L -579.04244 -3985.0294 C -581.1632 -3985.0294 -582.88244 -3986.7486 -582.88244 -3988.8694 L -582.88244 -4005.1894 C -582.88244 -4007.31 -581.1632 -4009.0294 -579.04244 -4009.0294 Z" stroke="black" stroke-linecap="round" stroke-linejoin="round" stroke-width=".25"/>
        </g>
        <g id="Graphic_8744">
          <path d="M -570.88244 -3995.8814 L -564.1413 -3999.4294 L -570.88244 -4002.9773 L -577.62355 -3999.4294 Z M -578.6687 -3999.7833 L -571.06873 -4003.7833 C -570.9521 -4003.8447 -570.81276 -4003.8447 -570.69614 -4003.7833 L -563.0962 -3999.7833 C -562.81126 -3999.6334 -562.81126 -3999.2254 -563.0962 -3999.0754 L -570.69614 -3995.0754 C -570.81276 -3995.014 -570.9521 -3995.014 -571.06873 -3995.0754 L -578.6687 -3999.0754 C -578.9536 -3999.2254 -578.9536 -3999.6334 -578.6687 -3999.7833 Z M -570.88244 -3993.4814 L -563.4688 -3997.3834 C -563.2733 -3997.4862 -563.0314 -3997.411 -562.9285 -3997.2157 C -562.82564 -3997.02 -562.9007 -3996.7783 -563.0962 -3996.6754 L -570.69614 -3992.6755 C -570.81276 -3992.614 -570.9521 -3992.614 -571.06873 -3992.6755 L -578.6687 -3996.6754 C -578.8642 -3996.7783 -578.93924 -3997.02 -578.83635 -3997.2157 C -578.73346 -3997.411 -578.4916 -3997.4862 -578.2961 -3997.3834 Z M -570.88244 -3991.0815 L -563.4688 -3994.9834 C -563.2733 -3995.0863 -563.0314 -3995.011 -562.9285 -3994.8157 C -562.82564 -3994.62 -562.9007 -3994.3783 -563.0962 -3994.2754 L -570.69614 -3990.2755 C -570.81276 -3990.214 -570.9521 -3990.214 -571.06873 -3990.2755 L -578.6687 -3994.2754 C -578.8642 -3994.3783 -578.93924 -3994.62 -578.83635 -3994.8157 C -578.73346 -3995.011 -578.4916 -3995.0863 -578.2961 -3994.9834 Z" fill="#66727e"/>
        </g>
      </g>
    </g>
  </g>
</svg>
